X: 191
T:The Streaker
M:4/4
L:1/8
F:http://blackrosetheband.googlepages.com/ABCTUNES.ABC May 2009
C:Composer: Duncan Johnstone
S:Angus Session Podcast
R:Reel
K:AMix
|:"A"e2ef edBd|edef g3e|"G"d3e defg|"D"afda fdaf|
"A"e2ef edBd|edef gefe|"G"defg "D"adgf|"A"efed e4:|
|:"A"efed Bded|edBd efge|"G"dedB defg|"D"afda fdaf|
"A"efed Bded|edBd efge|"G"defg "D"adgf|"A"efed e4:|
|:"A"e2ef Bee2|Beef gefe|"G"d2de Bdd2|"D"Bdde gefd|
"A"e2ef Bee2|Beef gefe|"G"defg "D"adgf|"A"efed e4:|
|:"A"egfg edBd|edef gefe|"G"d2d2 defg|"D"afda fdaf|
"A"egfg edBd|edef gefe|"G"defg "D"adgf|"A"efed e4:|

